flaticon/gastronomy/milk.svg

<svg xmlns="http://www.w3.org/2000/svg" width="32" height="32" viewBox="0 0 24 24">
    <path d="M 21.925781 7.21875 C 21.90625 7.179688 21.878906 7.144531 21.851562 7.113281 C 21.523438 5.65625 20.542969 4.828125 19.789062 4.195312 C 19.679688 4.101562 19.570312 4.011719 19.464844 3.917969 L 19.457031 3.910156 C 19.304688 3.773438 19.277344 3.601562 19.285156 3.484375 C 19.292969 3.261719 19.414062 3.042969 19.605469 2.898438 C 19.621094 2.886719 19.632812 2.871094 19.648438 2.855469 C 19.703125 2.8125 19.757812 2.761719 19.804688 2.710938 C 19.824219 2.6875 19.84375 2.664062 19.863281 2.640625 C 19.90625 2.582031 19.945312 2.523438 19.976562 2.460938 C 19.992188 2.4375 20.003906 2.414062 20.015625 2.390625 C 20.050781 2.320312 20.074219 2.25 20.097656 2.171875 C 20.101562 2.152344 20.109375 2.132812 20.117188 2.109375 C 20.136719 2.015625 20.152344 1.914062 20.152344 1.8125 L 20.152344 1.359375 C 20.152344 0.609375 19.542969 0 18.792969 0 L 13.8125 0 C 13.0625 0 12.453125 0.609375 12.453125 1.359375 L 12.453125 1.8125 C 12.453125 1.914062 12.46875 2.015625 12.488281 2.113281 C 12.496094 2.136719 12.503906 2.15625 12.511719 2.179688 C 12.53125 2.257812 12.558594 2.328125 12.59375 2.398438 C 12.605469 2.421875 12.617188 2.441406 12.628906 2.464844 C 12.667969 2.535156 12.710938 2.601562 12.761719 2.660156 C 12.773438 2.679688 12.789062 2.695312 12.800781 2.710938 C 12.867188 2.78125 12.9375 2.847656 13.015625 2.90625 C 13.015625 2.90625 13.019531 2.910156 13.019531 2.910156 C 13.210938 3.046875 13.339844 3.257812 13.367188 3.460938 C 13.382812 3.605469 13.347656 3.734375 13.257812 3.839844 C 13.234375 3.867188 13.203125 3.898438 13.175781 3.921875 C 13.074219 4.007812 12.972656 4.097656 12.863281 4.183594 C 12.59375 4.410156 12.296875 4.65625 12.011719 4.941406 C 11.734375 4.65625 11.449219 4.414062 11.1875 4.195312 C 11.074219 4.101562 10.964844 4.011719 10.863281 3.917969 L 10.855469 3.910156 C 10.699219 3.773438 10.675781 3.601562 10.679688 3.484375 C 10.691406 3.261719 10.8125 3.042969 11.003906 2.898438 C 11.019531 2.886719 11.03125 2.871094 11.046875 2.855469 C 11.101562 2.8125 11.152344 2.761719 11.199219 2.710938 C 11.21875 2.6875 11.238281 2.664062 11.257812 2.640625 C 11.300781 2.582031 11.339844 2.523438 11.375 2.460938 C 11.386719 2.4375 11.402344 2.414062 11.414062 2.390625 C 11.445312 2.320312 11.472656 2.25 11.492188 2.171875 C 11.5 2.152344 11.507812 2.132812 11.511719 2.109375 C 11.535156 2.015625 11.546875 1.914062 11.546875 1.8125 L 11.546875 1.359375 C 11.546875 0.609375 10.9375 0 10.1875 0 L 5.207031 0 C 4.460938 0 3.847656 0.609375 3.847656 1.359375 L 3.847656 1.8125 C 3.847656 1.914062 3.863281 2.015625 3.886719 2.113281 C 3.890625 2.136719 3.898438 2.15625 3.90625 2.179688 C 3.929688 2.257812 3.953125 2.328125 3.988281 2.398438 C 4 2.421875 4.011719 2.441406 4.023438 2.464844 C 4.0625 2.535156 4.105469 2.601562 4.15625 2.660156 C 4.171875 2.679688 4.183594 2.695312 4.199219 2.710938 C 4.261719 2.78125 4.332031 2.847656 4.410156 2.90625 C 4.414062 2.90625 4.414062 2.910156 4.417969 2.910156 C 4.605469 3.046875 4.738281 3.257812 4.761719 3.460938 C 4.78125 3.605469 4.742188 3.734375 4.652344 3.839844 C 4.628906 3.867188 4.601562 3.898438 4.570312 3.921875 C 4.46875 4.011719 4.359375 4.101562 4.25 4.191406 C 3.316406 4.964844 2.039062 6.019531 2.039062 8.152344 L 2.039062 10.949219 C 2.039062 10.964844 2.039062 10.976562 2.039062 10.992188 L 2.039062 21.835938 C 2.039062 23.027344 3.007812 24 4.203125 24 L 11.195312 24 C 11.480469 24 11.757812 23.941406 12.007812 23.835938 C 12.269531 23.945312 12.535156 24 12.804688 24 L 19.796875 24 C 20.992188 24 21.960938 23.027344 21.960938 21.835938 L 21.960938 8.152344 C 21.960938 7.949219 21.949219 7.757812 21.925781 7.574219 C 21.972656 7.464844 21.976562 7.335938 21.925781 7.21875 Z M 21.054688 11.773438 L 19.695312 11.773438 C 19.445312 11.773438 19.242188 11.976562 19.242188 12.226562 C 19.242188 12.476562 19.445312 12.679688 19.695312 12.679688 L 21.054688 12.679688 L 21.054688 14.945312 L 18.789062 14.945312 C 18.539062 14.945312 18.335938 15.144531 18.335938 15.394531 C 18.335938 15.648438 18.539062 15.847656 18.789062 15.847656 L 21.054688 15.847656 L 21.054688 16.753906 L 19.695312 16.753906 C 19.445312 16.753906 19.242188 16.957031 19.242188 17.207031 C 19.242188 17.457031 19.445312 17.660156 19.695312 17.660156 L 21.054688 17.660156 L 21.054688 18.566406 L 16.976562 18.566406 L 16.976562 10.867188 L 21.054688 10.867188 Z M 13.359375 1.359375 C 13.359375 1.109375 13.5625 0.90625 13.8125 0.90625 L 18.792969 0.90625 C 19.042969 0.90625 19.246094 1.109375 19.246094 1.359375 L 19.246094 1.8125 C 19.246094 1.878906 19.230469 1.941406 19.199219 2 C 19.195312 2.015625 19.179688 2.027344 19.171875 2.042969 C 19.148438 2.085938 19.117188 2.121094 19.078125 2.15625 C 19 2.21875 18.902344 2.265625 18.792969 2.265625 L 13.8125 2.265625 C 13.699219 2.265625 13.601562 2.21875 13.523438 2.152344 C 13.507812 2.140625 13.492188 2.125 13.480469 2.113281 C 13.449219 2.078125 13.421875 2.039062 13.402344 2 C 13.398438 1.988281 13.394531 1.976562 13.390625 1.96875 C 13.371094 1.917969 13.359375 1.867188 13.359375 1.8125 Z M 12.597656 5.632812 C 12.863281 5.359375 13.15625 5.117188 13.441406 4.882812 C 13.554688 4.789062 13.664062 4.699219 13.765625 4.609375 C 13.832031 4.550781 13.894531 4.492188 13.945312 4.425781 C 14.199219 4.128906 14.3125 3.746094 14.265625 3.351562 C 14.257812 3.289062 14.238281 3.230469 14.222656 3.167969 L 18.421875 3.167969 C 18.402344 3.257812 18.382812 3.347656 18.378906 3.441406 C 18.359375 3.882812 18.523438 4.285156 18.855469 4.589844 L 18.867188 4.601562 C 18.976562 4.695312 19.089844 4.789062 19.207031 4.890625 C 19.882812 5.457031 20.621094 6.089844 20.917969 7.148438 C 19.683594 7.617188 18.605469 7.710938 17.558594 7.445312 C 17.085938 7.324219 16.625 7.152344 16.175781 6.988281 C 15.199219 6.628906 14.1875 6.261719 13 6.359375 C 12.980469 6.3125 12.957031 6.261719 12.9375 6.214844 C 12.933594 6.210938 12.929688 6.207031 12.929688 6.199219 C 12.828125 6 12.71875 5.8125 12.597656 5.640625 C 12.597656 5.636719 12.597656 5.636719 12.597656 5.632812 Z M 4.753906 1.359375 C 4.753906 1.109375 4.957031 0.90625 5.207031 0.90625 L 10.1875 0.90625 C 10.4375 0.90625 10.640625 1.109375 10.640625 1.359375 L 10.640625 1.8125 C 10.640625 1.878906 10.625 1.941406 10.597656 2 C 10.589844 2.015625 10.578125 2.027344 10.570312 2.042969 C 10.542969 2.085938 10.511719 2.121094 10.476562 2.15625 C 10.394531 2.21875 10.296875 2.265625 10.1875 2.265625 L 5.207031 2.265625 C 5.097656 2.265625 5 2.21875 4.921875 2.152344 C 4.90625 2.140625 4.890625 2.125 4.875 2.113281 C 4.84375 2.078125 4.816406 2.039062 4.796875 2 C 4.792969 1.988281 4.789062 1.976562 4.785156 1.96875 C 4.769531 1.917969 4.753906 1.867188 4.753906 1.8125 Z M 4.828125 4.890625 C 4.941406 4.792969 5.054688 4.699219 5.164062 4.609375 C 5.230469 4.550781 5.289062 4.492188 5.34375 4.425781 C 5.597656 4.128906 5.710938 3.746094 5.660156 3.351562 C 5.652344 3.289062 5.632812 3.230469 5.617188 3.167969 L 9.820312 3.167969 C 9.800781 3.261719 9.78125 3.351562 9.773438 3.441406 C 9.753906 3.882812 9.921875 4.285156 10.253906 4.589844 L 10.265625 4.601562 C 10.371094 4.695312 10.488281 4.789062 10.605469 4.890625 C 11.035156 5.253906 11.496094 5.640625 11.851562 6.148438 C 11.855469 6.15625 11.859375 6.164062 11.863281 6.171875 C 11.941406 6.28125 12.007812 6.398438 12.074219 6.523438 C 12.085938 6.542969 12.097656 6.566406 12.109375 6.585938 C 12.171875 6.71875 12.230469 6.859375 12.28125 7.007812 C 12.285156 7.023438 12.289062 7.035156 12.292969 7.046875 C 12.339844 7.203125 12.382812 7.371094 12.410156 7.546875 C 12.410156 7.550781 12.410156 7.554688 12.410156 7.558594 C 12.4375 7.746094 12.453125 7.941406 12.453125 8.152344 L 12.453125 10.246094 C 10.59375 9.625 9.136719 9.941406 7.464844 10.65625 C 5.824219 11.355469 4.683594 11.359375 2.945312 10.664062 L 2.945312 8.152344 C 2.945312 6.445312 3.945312 5.621094 4.828125 4.890625 Z M 2.945312 21.835938 L 2.945312 11.636719 C 3.777344 11.9375 4.507812 12.097656 5.222656 12.097656 C 6.050781 12.097656 6.867188 11.894531 7.820312 11.488281 C 9.695312 10.6875 10.90625 10.613281 12.453125 11.210938 L 12.453125 21.835938 C 12.453125 21.941406 12.4375 22.042969 12.410156 22.144531 C 12.40625 22.164062 12.398438 22.179688 12.394531 22.199219 C 12.363281 22.292969 12.324219 22.386719 12.273438 22.472656 C 12.15625 22.664062 11.992188 22.824219 11.785156 22.9375 L 11.667969 23 C 11.519531 23.058594 11.363281 23.09375 11.195312 23.09375 L 4.203125 23.09375 C 3.507812 23.09375 2.945312 22.53125 2.945312 21.835938 Z M 19.796875 23.09375 L 12.949219 23.09375 C 12.992188 23.03125 13.03125 22.964844 13.070312 22.894531 C 13.09375 22.851562 13.121094 22.804688 13.144531 22.757812 C 13.171875 22.703125 13.195312 22.640625 13.21875 22.582031 C 13.242188 22.511719 13.265625 22.441406 13.285156 22.371094 C 13.296875 22.324219 13.308594 22.273438 13.320312 22.222656 C 13.34375 22.097656 13.359375 21.96875 13.359375 21.835938 L 13.359375 10.902344 C 13.359375 10.902344 13.359375 10.902344 13.359375 10.898438 L 13.359375 8.152344 C 13.359375 7.921875 13.339844 7.707031 13.3125 7.5 C 13.3125 7.480469 13.308594 7.460938 13.308594 7.441406 C 13.296875 7.378906 13.285156 7.316406 13.273438 7.25 C 14.183594 7.226562 15 7.519531 15.859375 7.839844 C 16.332031 8.011719 16.816406 8.191406 17.335938 8.324219 C 17.800781 8.441406 18.265625 8.5 18.738281 8.5 C 19.476562 8.5 20.238281 8.351562 21.050781 8.0625 C 21.050781 8.09375 21.054688 8.121094 21.054688 8.152344 L 21.054688 9.960938 L 16.070312 9.960938 L 16.070312 19.472656 L 21.058594 19.472656 L 21.058594 21.835938 C 21.058594 22.527344 20.492188 23.09375 19.796875 23.09375 Z M 19.796875 23.09375"/>
</svg>

<svg xmlns="http://www.w3.org/2000/svg" width="32" height="32" viewBox="0 0 24 24">
    <path d="M21.926 7.219a.511.511 0 0 0-.074-.106c-.329-1.457-1.309-2.285-2.063-2.918-.11-.093-.219-.183-.324-.277l-.008-.008a.517.517 0 0 1-.172-.426.785.785 0 0 1 .32-.586c.016-.011.028-.027.043-.043a1.37 1.37 0 0 0 .215-.214c.043-.059.082-.118.114-.18.015-.023.027-.047.039-.07.035-.07.058-.141.082-.22.004-.019.011-.038.02-.062a1.47 1.47 0 0 0 .034-.296v-.454C20.152.61 19.543 0 18.793 0h-4.98c-.75 0-1.36.61-1.36 1.36v.452c0 .102.016.204.035.301l.024.067c.02.078.047.148.082.218.011.024.023.043.035.067.039.07.082.137.133.195.011.02.027.035.039.05a1.7 1.7 0 0 0 .215.196l.004.004c.19.137.32.348.347.55a.483.483 0 0 1-.11.38.813.813 0 0 1-.081.082c-.102.086-.203.176-.313.262-.27.226-.566.472-.851.757a10.625 10.625 0 0 0-.825-.746c-.113-.093-.222-.183-.324-.277l-.008-.008a.522.522 0 0 1-.175-.426.803.803 0 0 1 .324-.586c.016-.011.027-.027.043-.043a1.333 1.333 0 0 0 .328-.394l.04-.07c.03-.07.058-.141.077-.22a1.236 1.236 0 0 0 .055-.36V1.36c0-.75-.61-1.359-1.36-1.359h-4.98c-.746 0-1.36.61-1.36 1.36v.452c0 .102.016.204.04.301.004.024.011.043.02.067.023.078.046.148.081.218.012.024.024.043.035.067.04.07.082.137.133.195.016.02.028.035.043.05.063.071.133.138.211.196.004 0 .004.004.008.004.187.137.32.348.344.55a.469.469 0 0 1-.11.38.543.543 0 0 1-.082.082c-.101.09-.21.18-.32.27-.934.773-2.21 1.828-2.21 3.96v13.684c0 1.191.968 2.164 2.163 2.164h6.992c.285 0 .563-.059.813-.164.262.11.527.164.797.164h6.992a2.166 2.166 0 0 0 2.164-2.164V8.152c0-.203-.012-.394-.035-.578a.45.45 0 0 0 0-.355zm-.871 4.554h-1.36a.453.453 0 0 0 0 .907h1.36v2.265h-2.266a.45.45 0 1 0 0 .903h2.266v.906h-1.36a.453.453 0 0 0 0 .906h1.36v.906h-4.078v-7.699h4.078zM13.359 1.36c0-.25.204-.453.454-.453h4.98c.25 0 .453.203.453.453v.454A.393.393 0 0 1 19.2 2c-.004.016-.02.027-.027.043a.46.46 0 0 1-.379.223h-4.98a.444.444 0 0 1-.29-.114c-.015-.011-.03-.027-.043-.039A.534.534 0 0 1 13.402 2a.27.27 0 0 0-.011-.031.429.429 0 0 1-.032-.157zm-.761 4.274c.265-.274.558-.516.843-.75.114-.094.223-.184.325-.274.066-.058.129-.117.18-.183.253-.297.367-.68.32-1.074-.008-.063-.028-.122-.043-.184h4.199c-.02.09-.04.18-.043.273-.02.442.144.844.476 1.149l.012.012c.11.093.223.187.34.289.676.566 1.414 1.199 1.711 2.257-1.234.47-2.313.563-3.36.297-.472-.12-.933-.293-1.382-.457-.977-.36-1.988-.726-3.176-.629l-.063-.144c-.003-.004-.007-.008-.007-.016a4.58 4.58 0 0 0-.332-.558v-.008zM4.754 1.359c0-.25.203-.453.453-.453h4.98c.25 0 .454.203.454.453v.454a.44.44 0 0 1-.043.187c-.008.016-.02.027-.028.043a.657.657 0 0 1-.093.113.48.48 0 0 1-.29.11h-4.98a.442.442 0 0 1-.285-.114c-.016-.011-.031-.027-.047-.039A.534.534 0 0 1 4.797 2a.27.27 0 0 0-.012-.031c-.015-.051-.031-.102-.031-.157zm.074 3.532c.113-.098.227-.192.336-.282.066-.058.125-.117.18-.183.254-.297.367-.68.316-1.074-.008-.063-.027-.122-.043-.184H9.82c-.02.094-.039.184-.047.273-.02.442.149.844.48 1.149l.013.012c.105.093.222.187.34.289.43.363.89.75 1.246 1.257l.011.024a3.1 3.1 0 0 1 .211.351l.035.063a4.132 4.132 0 0 1 .184.46c.047.157.09.325.117.5v.013c.027.187.043.382.043.593v2.094c-1.86-.621-3.316-.305-4.988.41-1.64.7-2.781.703-4.52.008V8.152c0-1.707 1-2.53 1.883-3.261zM2.945 21.836v-10.2c.832.302 1.563.462 2.278.462.828 0 1.644-.203 2.597-.61 1.875-.8 3.086-.875 4.633-.277v10.625c0 .105-.015.207-.043.309-.004.02-.012.035-.015.054-.032.094-.07.188-.122.274a1.3 1.3 0 0 1-.488.465l-.117.062a1.274 1.274 0 0 1-.473.094H4.203a1.257 1.257 0 0 1-1.258-1.258zm16.852 1.258h-6.848a2.45 2.45 0 0 0 .121-.2c.024-.042.051-.09.075-.136.027-.055.05-.117.074-.176.023-.07.047-.14.066-.21l.035-.15c.024-.124.04-.253.04-.386V10.902v-2.75c0-.23-.02-.445-.047-.652 0-.02-.004-.04-.004-.059l-.036-.191c.91-.023 1.727.27 2.586.59.473.172.957.351 1.477.484a5.7 5.7 0 0 0 1.402.176c.739 0 1.5-.148 2.313-.438 0 .032.004.06.004.09v1.809H16.07v9.512h4.989v2.363c0 .691-.567 1.258-1.262 1.258zm0 0"/>
</svg>
